packages/foundations/assets/icons/functional/images/security/lock_open_24_filled.svg

<svg xmlns="http://www.w3.org/2000/svg" width="20" height="20" fill="none"><path fill="#1A1C1F" fill-rule="evenodd" d="M9.617 2.021c-.924.105-1.722.471-2.373 1.089a4.05 4.05 0 0 0-1.193 2.258C6.012 5.609 6 5.961 6 6.858v1.175h-.132c-.356 0-.833.191-1.161.464a2.2 2.2 0 0 0-.599.87l-.091.25-.01 3.283c-.011 3.661-.017 3.536.218 4.008.085.172.193.315.372.493.291.289.548.437.923.533.25.064.384.066 4.48.066s4.23-.002 4.48-.066a1.85 1.85 0 0 0 .923-.533c.179-.178.287-.321.372-.493.235-.472.229-.347.218-4.008l-.01-3.283-.082-.234a2.27 2.27 0 0 0-.619-.893c-.233-.189-.593-.369-.842-.42-.121-.025-1.166-.037-3.311-.037H7.995l.013-1.208c.011-1.132.017-1.222.085-1.425.226-.678.81-1.207 1.49-1.35a1.93 1.93 0 0 1 1.818.547c.293.295.425.528.548.964.123.44.249.621.535.769a.99.99 0 0 0 1.231-.242c.223-.273.277-.543.188-.949a4 4 0 0 0-3.307-3.087 4.3 4.3 0 0 0-.979-.031m.831 9.093a.98.98 0 0 1 .465.484c.068.146.07.201.07 1.402 0 1.209-.002 1.255-.071 1.405a1.15 1.15 0 0 1-.507.506 1.14 1.14 0 0 1-.81 0 1.15 1.15 0 0 1-.507-.506c-.068-.147-.072-.211-.082-1.305-.007-.764.001-1.207.026-1.321.137-.627.829-.952 1.416-.665"/></svg>

<svg width="20" height="20" viewBox="0 0 20 20" fill="none" xmlns="http://www.w3.org/2000/svg"><path d="M9.617 2.021 C 8.693 2.126,7.895 2.492,7.244 3.110 C 6.619 3.704,6.189 4.517,6.051 5.368 C 6.012 5.609,6.000 5.961,6.000 6.858 L 6.000 8.033 5.868 8.033 C 5.512 8.033,5.035 8.224,4.707 8.497 C 4.463 8.700,4.225 9.045,4.108 9.367 L 4.017 9.617 4.007 12.900 C 3.996 16.561,3.990 16.436,4.225 16.908 C 4.310 17.080,4.418 17.223,4.597 17.401 C 4.888 17.690,5.145 17.838,5.520 17.934 C 5.770 17.998,5.904 18.000,10.000 18.000 C 14.096 18.000,14.230 17.998,14.480 17.934 C 14.855 17.838,15.112 17.690,15.403 17.401 C 15.582 17.223,15.690 17.080,15.775 16.908 C 16.010 16.436,16.004 16.561,15.993 12.900 L 15.983 9.617 15.901 9.383 C 15.791 9.070,15.526 8.687,15.282 8.490 C 15.049 8.301,14.689 8.121,14.440 8.070 C 14.319 8.045,13.274 8.033,11.129 8.033 L 7.995 8.033 8.008 6.825 C 8.019 5.693,8.025 5.603,8.093 5.400 C 8.319 4.722,8.903 4.193,9.583 4.050 C 10.263 3.908,10.910 4.102,11.401 4.597 C 11.694 4.892,11.826 5.125,11.949 5.561 C 12.072 6.001,12.198 6.182,12.484 6.330 C 12.910 6.549,13.418 6.450,13.715 6.088 C 13.938 5.815,13.992 5.545,13.903 5.139 C 13.551 3.533,12.221 2.291,10.596 2.052 C 10.273 2.005,9.875 1.992,9.617 2.021 M10.448 11.114 C 10.654 11.215,10.812 11.379,10.913 11.598 C 10.981 11.744,10.983 11.799,10.983 13.000 C 10.983 14.209,10.981 14.255,10.912 14.405 C 10.820 14.604,10.603 14.821,10.405 14.911 C 10.190 15.010,9.810 15.010,9.595 14.911 C 9.397 14.821,9.180 14.604,9.088 14.405 C 9.020 14.258,9.016 14.194,9.006 13.100 C 8.999 12.336,9.007 11.893,9.032 11.779 C 9.169 11.152,9.861 10.827,10.448 11.114 " fill="#1A1C1F" stroke="none" fill-rule="evenodd"></path></svg>
